Origami/64x64/apps/calibre-viewer.svg

<svg width="64" height="64" version="1" xmlns="http://www.w3.org/2000/svg">
 <path d="m10 56v2c0 1.662 1.338 3 3 3h38c1.662 0 3-1.338 3-3v-2c0 1.662-1.338 3-3 3h-38c-1.662 0-3-1.338-3-3z" style="opacity:.2"/>
 <path d="m13 4c-1.662 0-3 1.338-3 3v50c0 1.662 1.338 3 3 3h38c1.662 0 3-1.338 3-3v-50c0-1.662-1.338-3-3-3h-38z" style="fill:#009587"/>
 <path d="m13 4c-1.662 0-3 1.338-3 3v50c0 1.662 1.338 3 3 3h5v-56z" style="opacity:.2"/>
 <path d="m38 5v28l4-4 4 4v-28h-8z" style="opacity:.2"/>
 <path d="m38 4v28l4-4 4 4v-28h-8z" style="fill:#d8d8d8"/>
 <path d="m13 4c-1.662 0-3 1.338-3 3v1c0-1.662 1.338-3 3-3h38c1.662 0 3 1.338 3 3v-1c0-1.662-1.338-3-3-3h-38z" style="fill:#ffffff;opacity:.2"/>
 <path d="M 63.958,45.848 A 16,16 0 0 1 48,61 16,16 0 0 1 32.042,46.152 16,16 0 0 0 32,47 16,16 0 0 0 48,63 16,16 0 0 0 64,47 16,16 0 0 0 63.958,45.848 Z" style="fill-rule:evenodd;opacity:.2"/>
 <circle cx="48" cy="46" r="16" style="fill-rule:evenodd;fill:#c03630"/>
 <path d="m48 39c-1.93854 0.02128-3.889525 0.518117-5.578125 1.589844-0.67302 0.490944-1.480984 1.124811-2.089844 1.763672-0.958 1.050471-1.778031 2.275433-2.332031 3.648437 1.51868 3.751906 4.856497 6.501901 8.529297 6.908203 2.4092 0.30542 4.931028-0.161009 7.048828-1.496094 0.673-0.490943 1.480984-1.12481 2.089844-1.763671 0.958-1.052711 1.778031-2.277674 2.332031-3.648438-1.518-3.751682-4.857297-6.502797-8.529297-6.908203-0.488-0.06495-0.980703-0.09375-1.470703-0.09375zm0.003906 3c2.139701-0.04741 4.034404 1.867621 3.994141 3.996094 0.06857 2.352448-2.274639 4.382659-4.591797 3.943359-2.340165-0.274786-3.984532-2.901019-3.214844-5.125 0.492105-1.636188 2.099539-2.831675 3.814453-2.8125l-0.001953-0.001953zm-0.003906 2a1.9999991 1.9988488 0 0 0 -2 2.001953 1.9999991 1.9988488 0 0 0 2 1.998047 1.9999991 1.9988488 0 0 0 2 -1.998047 1.9999991 1.9988488 0 0 0 -2 -1.998047v-0.003906z" style="fill-rule:evenodd;fill:#ffffff"/>
</svg>

<svg xmlns="http://www.w3.org/2000/svg" width="64" height="64" version="1">
 <path style="opacity:0.2" d="m 10,56 0,2 c 0,1.662 1.338,3 3,3 l 38,0 c 1.662,0 3,-1.338 3,-3 l 0,-2 c 0,1.662 -1.338,3 -3,3 l -38,0 c -1.662,0 -3,-1.338 -3,-3 z"/>
 <path style="fill:#009587" d="m 13,4 c -1.662,0 -3,1.338 -3,3 l 0,50 c 0,1.662 1.338,3 3,3 l 38,0 c 1.662,0 3,-1.338 3,-3 L 54,7 C 54,5.338 52.662,4 51,4 L 13,4 Z"/>
 <path style="opacity:0.2" d="m 13,4 c -1.662,0 -3,1.338 -3,3 l 0,50 c 0,1.662 1.338,3 3,3 l 5,0 0,-56 z"/>
 <path style="opacity:0.2" d="m 38,5 0,28 4,-4 4,4 0,-28 -8,0 z"/>
 <path style="fill:#d8d8d8" d="m 38,4 0,28 4,-4 4,4 0,-28 -8,0 z"/>
 <path style="opacity:0.2;fill:#ffffff" d="M 13 4 C 11.338 4 10 5.338 10 7 L 10 8 C 10 6.338 11.338 5 13 5 L 51 5 C 52.662 5 54 6.338 54 8 L 54 7 C 54 5.338 52.662 4 51 4 L 13 4 z"/>
 <path style="opacity:0.2;fill-rule:evenodd" d="M 63.958,45.848 A 16,16 0 0 1 48,61 16,16 0 0 1 32.042,46.152 16,16 0 0 0 32,47 16,16 0 0 0 48,63 16,16 0 0 0 64,47 16,16 0 0 0 63.958,45.848 Z"/>
 <circle style="fill:#c03630;fill-rule:evenodd" cx="48" cy="46" r="16"/>
 <path style="fill:#ffffff;fill-rule:evenodd" d="M 48 39 C 46.06146 39.02128 44.110475 39.518117 42.421875 40.589844 C 41.748855 41.080788 40.940891 41.714655 40.332031 42.353516 C 39.374031 43.403987 38.554 44.628949 38 46.001953 C 39.51868 49.753859 42.856497 52.503854 46.529297 52.910156 C 48.938497 53.215576 51.460325 52.749147 53.578125 51.414062 C 54.251125 50.923119 55.059109 50.289252 55.667969 49.650391 C 56.625969 48.59768 57.446 47.372717 58 46.001953 C 56.482 42.250271 53.142703 39.499156 49.470703 39.09375 C 48.982703 39.0288 48.49 39 48 39 z M 48.003906 42 C 50.143607 41.95259 52.03831 43.867621 51.998047 45.996094 C 52.066617 48.348542 49.723408 50.378753 47.40625 49.939453 C 45.066085 49.664667 43.421718 47.038434 44.191406 44.814453 C 44.683511 43.178265 46.290945 41.982778 48.005859 42.001953 L 48.003906 42 z M 48 44 A 1.9999991 1.9988488 0 0 0 46 46.001953 A 1.9999991 1.9988488 0 0 0 48 48 A 1.9999991 1.9988488 0 0 0 50 46.001953 A 1.9999991 1.9988488 0 0 0 48 44.003906 L 48 44 z"/>
</svg>
